X: 1
T: Frank's Reel
M: 4/4
L: 1/8
K: Amaj
E|"A"AcBA "D" F2 AF|"A"EFAB cABc |"D"d~f3 "A"eAce |
"F#m"(3fga "E"ec BdcB | "A"AcBA "D"F2AF|"A"EFAB cABc |
"D"d~f3 "A/E"ecAc |[1 "E"BAGB A3 :| [2"E7"BAGB Aefg||
"A"aAA"E"g AA"D"fA |"A"effe cABc |"D"d~f3 "A"eAcA |"Bm"Bcde "E"fefg |
"A"aAA"E"g AA"D"fA |"A"effe cABc |"D"d~f3 "A"ecAc |"E"BAGB Aefg |
"F#m"aAA"C#m/E"g AA"D"fA |"A"effe cABc |"D"d~f3 "A"eAce |"F#m"(3fga ec "E"BdcB|
"A"AcBA "D"[FA]3F |"A"EFAB cABc |"D"d~f3 "A/E"ecAc |"E7"BAGB "A"A4 |] 
